!!!OTL: Verschlafener Jaeger Es wollte ein Jaeger frueh jagen
!!!ARE: Europa, Osteuropa, UdSSR, Krim, Neusatz
!!!YOR: 7, S. 187
!!    1927 aufgezeichnet
!!!SCT: Q0152C
!!!YEM: Copyright 1995, estate of Helmut Schaffrath.
**kern
*ICvox
*Ivox
*M3/4
*k[f#]
*G:
{8g
8b
=1
4.dd
8gg
8dd
8cc
=2
4.b
8a
8b
8dd
=3
8dd
8cc
4b
8dd
8b
=4
4a
4r}
{8g
8b
=5
4.dd
8gg
8dd
8cc
=6
4.b
8a
8b
8dd
=7
8dd
8cc
4b
8dd
8b
=8
4a
4r}
{8dd
8dd
=9
4b
4dd
4a
=10
4a
8ee
8dd
8cc
8a
=11
4g
4gg
8ee
8dd
=12
4gg
4r}
{8dd
8dd
=13
4b
4dd
4g
=14
4a
8ee
8dd
8cc
8a
=15
4g
4r}
==
!!!AGN: Ballade, Verfuehrung, Versagen, Spott
!! Grundton in der kleinen Oktave.
!!!ONB: ESAC (Essen Associative Code) Database: BALLADE
!!!AMT: simple triple
!!!AIN: vox
!!!EED: Helmut Schaffrath
!!!EEV: 1.0
*-
